client/public/assets/icons/standard/messaging_session.svg

<?xml version="1.0"?><svg xmlns="http://www.w3.org/2000/svg" width="100" height="100" viewBox="0 0 100 100"><path fill="#fff" d="m50 22c16.6 0 30 12.5 30.1 28 0 15.5-13.4 28-30 28-5.8 0-11.2-1.5-15.8-4.2-0.5-0.3-1.1-0.4-1.7-0.2l-8.8 3.1c-1.6 0.5-3.1-0.9-2.6-2.5l2.8-8.9c0.2-0.5 0.1-1.1-0.2-1.6-2.4-4.1-3.8-8.7-3.8-13.7 0-15.5 13.4-28 30-28z m13 23c0.6 0 1-0.4 1-1v-6c0-0.6-0.4-1-1-1h-26c-0.6 0-1 0.4-1 1v6c0 0.6 0.4 1 1 1h26z m-20 20c0.6 0 1-0.4 1-1v-12c0-0.6-0.4-1-1-1h-6c-0.6 0-1 0.4-1 1v12c0 0.6 0.4 1 1 1h6z m20 0c0.6 0 1-0.4 1-1v-12c0-0.6-0.4-1-1-1h-12c-0.6 0-1 0.4-1 1v12c0 0.6 0.4 1 1 1h12z"></path></svg>

<svg xmlns="http://www.w3.org/2000/svg" width="100" height="100" viewBox="0 0 100 100">
  <path fill="#FFFFFF" d="M50,22 L50,22 C66.6,22 80,34.5 80.1,50 C80.1,65.5 66.7,78 50.1,78 C44.3,78 38.9,76.5 34.3,73.8 C33.8,73.5 33.2,73.4 32.6,73.6 L23.8,76.7 C22.2,77.2 20.7,75.8 21.2,74.2 L24,65.3 C24.2,64.8 24.1,64.2 23.8,63.7 C21.4,59.6 20,55 20,50 C20,34.5 33.4,22 50,22 Z M63,45 C63.6,45 64,44.6 64,44 L64,38 C64,37.4 63.6,37 63,37 L37,37 C36.4,37 36,37.4 36,38 L36,44 C36,44.6 36.4,45 37,45 L63,45 Z M43,65 C43.6,65 44,64.6 44,64 L44,52 C44,51.4 43.6,51 43,51 L37,51 C36.4,51 36,51.4 36,52 L36,64 C36,64.6 36.4,65 37,65 L43,65 Z M63,65 C63.6,65 64,64.6 64,64 L64,52 C64,51.4 63.6,51 63,51 L51,51 C50.4,51 50,51.4 50,52 L50,64 C50,64.6 50.4,65 51,65 L63,65 Z"/>
</svg>
